Simply-Purple-Circles/scalable/apps/distributor-logo-kubuntu.svg

<svg xmlns="http://www.w3.org/2000/svg" width="48" height="48" viewBox="0 0 12.7 12.7"><path d="M6.34.07a6.29 6.29 0 0 0-6.29 6.3 6.29 6.29 0 0 0 6.3 6.28 6.29 6.29 0 0 0 6.28-6.29A6.29 6.29 0 0 0 6.34.07zM6.32 1l.01.01a5.4 5.4 0 0 1 5.4 5.4 5.4 5.4 0 0 1-5.4 5.41 5.4 5.4 0 0 1-5.41-5.4A5.4 5.4 0 0 1 6.32 1zm-.63.88l-.76.2.65 1.68.24.14a2.54 2.54 0 0 1 2.86 1.6l.01.06.3.17 1.77-.27-.2-.77-1.5-.21-.59-.67.46-1.36-.73-.42-.94 1.08-.87-.18-.7-1.05zM3.3 3l-.55.57.56 1.4-.28.84-1.4.28v.85l1.4.28.28.84-.56 1.12.56.56 1.12-1.4v-.3a2.5 2.5 0 0 1 0-3.35v-.28L3.3 3zm5.72 4.02l-.32.19a2.55 2.55 0 0 1-2.86 1.65l-.22.13-.66 1.67.77.2.94-1.18.87-.18.94 1.08.73-.43-.46-1.35.6-.67 1.24-.07.21-.77-1.78-.27z" fill="#963996"/></svg>

<?xml version="1.0" encoding="UTF-8" standalone="no"?>
<svg
   xmlns:dc="http://purl.org/dc/elements/1.1/"
   xmlns:cc="http://creativecommons.org/ns#"
   xmlns:rdf="http://www.w3.org/1999/02/22-rdf-syntax-ns#"
   xmlns:svg="http://www.w3.org/2000/svg"
   xmlns="http://www.w3.org/2000/svg"
   xmlns:sodipodi="http://sodipodi.sourceforge.net/DTD/sodipodi-0.dtd"
   xmlns:inkscape="http://www.inkscape.org/namespaces/inkscape"
   width="48"
   height="48"
   viewBox="0 0 12.7 12.7"
   version="1.1"
   id="svg4"
   sodipodi:docname="distributor-logo-kubuntu.svg"
   inkscape:version="0.92.4 (5da689c313, 2019-01-14)">
  <metadata
     id="metadata10">
    <rdf:RDF>
      <cc:Work
         rdf:about="">
        <dc:format>image/svg+xml</dc:format>
        <dc:type
           rdf:resource="http://purl.org/dc/dcmitype/StillImage" />
        <dc:title></dc:title>
      </cc:Work>
    </rdf:RDF>
  </metadata>
  <defs
     id="defs8" />
  <sodipodi:namedview
     pagecolor="#ffffff"
     bordercolor="#666666"
     borderopacity="1"
     objecttolerance="10"
     gridtolerance="10"
     guidetolerance="10"
     inkscape:pageopacity="0"
     inkscape:pageshadow="2"
     inkscape:window-width="1087"
     inkscape:window-height="480"
     id="namedview6"
     showgrid="false"
     inkscape:zoom="4.9166667"
     inkscape:cx="2.1355932"
     inkscape:cy="24"
     inkscape:window-x="0"
     inkscape:window-y="25"
     inkscape:window-maximized="0"
     inkscape:current-layer="svg4" />
  <path
     d="M 6.34,0.07 A 6.29,6.29 0 0 0 0.05,6.37 6.29,6.29 0 0 0 6.35,12.65 6.29,6.29 0 0 0 12.63,6.36 6.29,6.29 0 0 0 6.34,0.07 Z M 6.32,1 6.33,1.01 a 5.4,5.4 0 0 1 5.4,5.4 5.4,5.4 0 0 1 -5.4,5.41 A 5.4,5.4 0 0 1 0.92,6.42 5.4,5.4 0 0 1 6.32,1 Z M 5.69,1.88 4.93,2.08 5.58,3.76 5.82,3.9 A 2.54,2.54 0 0 1 8.68,5.5 L 8.69,5.56 8.99,5.73 10.76,5.46 10.56,4.69 9.06,4.48 8.47,3.81 8.93,2.45 8.2,2.03 7.26,3.11 6.39,2.93 Z M 3.3,3 2.75,3.57 3.31,4.97 3.03,5.81 1.63,6.09 v 0.85 l 1.4,0.28 0.28,0.84 -0.56,1.12 0.56,0.56 1.12,-1.4 v -0.3 a 2.5,2.5 0 0 1 0,-3.35 V 4.41 Z M 9.02,7.02 8.7,7.21 A 2.55,2.55 0 0 1 5.84,8.86 L 5.62,8.99 4.96,10.66 5.73,10.86 6.67,9.68 7.54,9.5 8.48,10.58 9.21,10.15 8.75,8.8 9.35,8.13 10.59,8.06 10.8,7.29 Z"
     id="path2"
     inkscape:connector-curvature="0"
     style="fill:#963996" />
</svg>
